images/svg/logoipsum2.svg

<svg width="134" height="31" viewBox="0 0 134 31" fill="none" xmlns="http://www.w3.org/2000/svg">
<path d="M39 8.89968H42.3777V22.2133H39V8.89968ZM43.7175 17.1864C43.7175 13.8937 45.7891 11.929 48.9866 11.929C52.1842 11.929 54.2558 13.8937 54.2558 17.1864C54.2558 20.4792 52.2292 22.4548 48.9866 22.4548C45.7441 22.4548 43.7175 20.534 43.7175 17.1864ZM50.8669 17.1864C50.8669 15.3754 50.135 14.3108 48.9866 14.3108C47.8382 14.3108 47.1177 15.4083 47.1177 17.1864C47.1177 18.9645 47.827 20.0401 48.9866 20.0401C50.1463 20.0401 50.8669 19.0304 50.8669 17.1974V17.1864ZM55.5281 22.8609H58.7706C58.9249 23.1951 59.1858 23.4718 59.5145 23.6498C59.8431 23.8278 60.222 23.8976 60.5946 23.8487C61.8781 23.8487 62.5536 23.1682 62.5536 22.1804V20.3365H62.4861C62.2169 20.9016 61.7803 21.3752 61.2324 21.696C60.6845 22.0169 60.0506 22.1703 59.4124 22.1365C56.9467 22.1365 55.3141 20.3036 55.3141 17.1535C55.3141 14.0034 56.8679 12.0168 59.4574 12.0168C60.1156 11.9917 60.766 12.1632 61.3213 12.5085C61.8767 12.8537 62.3106 13.3562 62.5649 13.9486V12.1156H65.9425V22.1036C65.9425 24.5073 63.7696 26 60.5608 26C57.5772 26 55.7195 24.6939 55.5281 22.8719V22.8609ZM62.5649 17.1754C62.5649 15.573 61.8105 14.5632 60.6171 14.5632C59.4236 14.5632 58.6918 15.562 58.6918 17.1754C58.6918 18.7889 59.4124 19.6999 60.6171 19.6999C61.8218 19.6999 62.5649 18.8108 62.5649 17.1864V17.1754ZM67.2148 17.1754C67.2148 13.8827 69.2864 11.918 72.484 11.918C75.6815 11.918 77.7644 13.8827 77.7644 17.1754C77.7644 20.4682 75.7378 22.4438 72.484 22.4438C69.2301 22.4438 67.2148 20.534 67.2148 17.1864V17.1754ZM74.3642 17.1754C74.3642 15.3644 73.6324 14.2998 72.484 14.2998C71.3356 14.2998 70.6713 15.4083 70.6713 17.1974C70.6713 18.9865 71.3806 20.0511 72.529 20.0511C73.6774 20.0511 74.3642 19.0304 74.3642 17.1974V17.1754ZM79.0479 9.72287C79.039 9.39042 79.1316 9.06289 79.314 8.78181C79.4963 8.50072 79.7601 8.27874 80.072 8.144C80.3839 8.00926 80.7298 7.96783 81.0659 8.02497C81.4019 8.0821 81.713 8.23522 81.9597 8.46492C82.2064 8.69462 82.3776 8.99056 82.4516 9.31521C82.5255 9.63986 82.4989 9.97861 82.3752 10.2885C82.2514 10.5984 82.0361 10.8655 81.7564 11.056C81.4767 11.2464 81.1454 11.3516 80.8043 11.3583C80.5782 11.3734 80.3513 11.3428 80.1379 11.2684C79.9245 11.194 79.7292 11.0773 79.5643 10.9258C79.3994 10.7743 79.2683 10.5912 79.1795 10.3879C79.0906 10.1847 79.0458 9.96574 79.0479 9.74482V9.72287ZM79.0479 12.1375H82.4256V22.2133H79.0479V12.1375ZM94.6865 17.1754C94.6865 20.4682 93.1891 22.3451 90.622 22.3451C89.9638 22.3862 89.3085 22.2294 88.7446 21.8957C88.1808 21.562 87.7357 21.0675 87.4695 20.4792H87.402V25.4402H84.0243V12.1156H87.402V13.9156H87.4695C87.7233 13.3176 88.16 12.8102 88.72 12.4626C89.28 12.115 89.9363 11.944 90.5995 11.9729C93.1891 12.0168 94.7315 13.9047 94.7315 17.1974L94.6865 17.1754ZM91.3088 17.1754C91.3088 15.573 90.5545 14.5522 89.3723 14.5522C88.1901 14.5522 87.4358 15.584 87.4245 17.1754C87.4133 18.7669 88.1901 19.7877 89.3723 19.7877C90.5545 19.7877 91.3088 18.7889 91.3088 17.1974V17.1754ZM100.485 11.9071C103.288 11.9071 104.988 13.2022 105.067 15.2766H101.994C101.994 14.5632 101.386 14.1132 100.451 14.1132C99.5166 14.1132 99.1 14.4644 99.1 14.9803C99.1 15.4961 99.4715 15.6608 100.226 15.8144L102.388 16.2425C104.448 16.6706 105.326 17.4828 105.326 19.0084C105.326 21.0938 103.378 22.4329 100.507 22.4329C97.6363 22.4329 95.7561 21.0938 95.6097 19.0413H98.8636C98.9649 19.7877 99.5729 20.2267 100.564 20.2267C101.554 20.2267 102.005 19.9084 102.005 19.3816C102.005 18.8547 101.69 18.745 100.879 18.5803L98.9311 18.1742C96.9158 17.7681 95.8574 16.7254 95.8574 15.1888C95.88 13.2132 97.6926 11.929 100.485 11.929V11.9071ZM116.596 22.1914H113.342V20.3145H113.275C113.096 20.9447 112.702 21.4962 112.157 21.8776C111.612 22.2589 110.95 22.4471 110.28 22.4109C109.767 22.4393 109.253 22.3601 108.774 22.1784C108.295 21.9968 107.862 21.7171 107.503 21.3581C107.145 20.9991 106.869 20.5693 106.696 20.0977C106.522 19.6261 106.454 19.1236 106.497 18.6243V12.1156H109.875V17.8669C109.875 19.0633 110.505 19.6999 111.552 19.6999C111.798 19.7004 112.041 19.6497 112.264 19.5512C112.488 19.4528 112.688 19.3088 112.85 19.129C113.012 18.9492 113.133 18.7377 113.204 18.5086C113.275 18.2796 113.296 18.0384 113.264 17.8011V12.1156H116.641L116.596 22.1914ZM118.229 12.1156H121.494V14.0583H121.561C121.741 13.4365 122.126 12.8902 122.658 12.5049C123.19 12.1196 123.838 11.9171 124.5 11.929C125.174 11.8764 125.844 12.073 126.376 12.4798C126.908 12.8865 127.263 13.4736 127.371 14.1242H127.439C127.643 13.4667 128.066 12.8941 128.641 12.4966C129.215 12.0992 129.91 11.8995 130.614 11.929C131.073 11.914 131.53 11.9933 131.956 12.1619C132.382 12.3304 132.767 12.5844 133.085 12.9074C133.404 13.2304 133.649 13.6151 133.805 14.0365C133.961 14.4579 134.025 14.9066 133.991 15.3535V22.2133H130.614V16.2315C130.614 15.1339 130.107 14.6291 129.161 14.6291C128.95 14.6273 128.742 14.6697 128.549 14.7533C128.356 14.837 128.184 14.9599 128.044 15.1139C127.905 15.2678 127.8 15.4492 127.739 15.6458C127.677 15.8424 127.659 16.0496 127.686 16.2535V22.2133H124.478V16.1876C124.478 15.1778 123.971 14.6291 123.048 14.6291C122.834 14.6291 122.624 14.6733 122.429 14.7586C122.235 14.8439 122.061 14.9685 121.919 15.1241C121.778 15.2796 121.672 15.4627 121.608 15.6612C121.544 15.8596 121.525 16.069 121.55 16.2754V22.2133H118.173L118.229 12.1156Z" fill="#4A5D69"/>
<path d="M28.7615 9.36267C28.1987 8.0326 27.4539 6.79309 26.5498 5.68215C25.2134 3.99087 23.5455 2.61131 21.6561 1.63427C19.7667 0.657235 17.6985 0.104871 15.5877 0.0135342C13.4769 -0.0778021 11.3713 0.293958 9.40944 1.10435C7.44763 1.91474 5.6741 3.14539 4.20558 4.7153C2.73706 6.28521 1.60685 8.15878 0.88933 10.2127C0.17181 12.2666 -0.11675 14.4543 0.042646 16.6318C0.202042 18.8093 0.805779 20.9273 1.81412 22.8462C2.82246 24.7652 4.21254 26.4416 5.89287 27.7653C6.97106 28.6315 8.16243 29.3358 9.43153 29.857C11.2109 30.6107 13.1152 30.9989 15.0381 31C19.0074 30.9909 22.8112 29.3555 25.6159 26.4523C28.4205 23.5491 29.9971 19.6149 30 15.5121C30.0029 13.3958 29.5812 11.3019 28.7615 9.36267ZM15.027 3.15608C16.7538 3.15588 18.4598 3.546 20.0254 4.29909C19.6436 4.4696 19.2422 4.58868 18.8311 4.65343C17.4782 4.85585 16.2249 5.50507 15.2583 6.50417C14.2917 7.50328 13.6637 8.79869 13.4678 10.1971C13.3819 10.9813 13.0368 11.7109 12.4908 12.2627C11.9449 12.8145 11.2315 13.1548 10.471 13.2261C9.11813 13.4285 7.86486 14.0777 6.89826 15.0768C5.93166 16.0759 5.30357 17.3713 5.10773 18.7697C5.04143 19.5154 4.73362 20.2162 4.23412 20.7586C3.3723 18.8763 2.98515 16.7993 3.10869 14.7208C3.23223 12.6423 3.86246 10.6299 4.94072 8.87088C6.01898 7.11183 7.51022 5.66331 9.27569 4.66012C11.0411 3.65692 13.0234 3.13166 15.0381 3.13321L15.027 3.15608ZM5.88181 23.5132C6.01451 23.3875 6.14721 23.2732 6.27991 23.136C7.26372 22.1501 7.89522 20.8487 8.07136 19.4441C8.14278 18.6545 8.48383 17.9171 9.03343 17.3638C9.56229 16.7948 10.2741 16.4452 11.035 16.3808C12.3879 16.1784 13.6411 15.5292 14.6077 14.5301C15.5743 13.5309 16.2024 12.2355 16.3983 10.8372C16.4461 10.0113 16.789 9.23332 17.3603 8.654C17.9023 8.09603 18.6209 7.75913 19.384 7.70529C20.6269 7.52854 21.786 6.95743 22.7015 6.07078C23.7439 6.9647 24.6271 8.04008 25.3113 9.24837C25.2692 9.30706 25.221 9.36073 25.1675 9.40839C24.6397 9.98241 23.9287 10.3397 23.166 10.4142C21.8117 10.6131 20.5565 11.2612 19.5893 12.261C18.6221 13.2607 17.9951 14.5581 17.8027 15.9579C17.7247 16.7448 17.386 17.4796 16.8439 18.0379C16.3017 18.5962 15.5896 18.9435 14.828 19.0212C13.4712 19.222 12.2132 19.87 11.241 20.8687C10.2688 21.8674 9.63423 23.1636 9.43153 24.5648C9.37202 25.1234 9.18641 25.6598 8.88967 26.1307C7.75509 25.4345 6.73893 24.5502 5.88181 23.5132ZM15.027 27.9253C13.9049 27.9265 12.7882 27.7649 11.7095 27.4452C12.0785 26.7343 12.3184 25.9595 12.4173 25.1592C12.4948 24.374 12.8319 23.6406 13.3718 23.0825C13.9117 22.5245 14.6213 22.176 15.3809 22.0959C16.7358 21.8957 17.9916 21.2475 18.9603 20.2482C19.9291 19.2489 20.5588 17.9523 20.7552 16.5523C20.8327 15.7671 21.1699 15.0337 21.7098 14.4756C22.2497 13.9175 22.9593 13.5691 23.7189 13.489C24.7385 13.3519 25.7103 12.9595 26.5498 12.3459C27.016 14.1724 27.0712 16.0849 26.7112 17.9368C26.3513 19.7888 25.5857 21.5309 24.4732 23.0295C23.3607 24.5281 21.9309 25.7434 20.2935 26.5821C18.656 27.4209 16.8545 27.8608 15.027 27.8681V27.9253Z" fill="#4A5D69"/>
<rect x="18" y="29" width="1" height="1" fill="#4A5D69"/>
</svg>

<svg xmlns="http://www.w3.org/2000/svg" width="134" height="31" fill="none"><path fill="#4A5D69" d="M39 8.9h3.378v13.313H39V8.9Zm4.718 8.286c0-3.292 2.071-5.257 5.269-5.257 3.197 0 5.269 1.965 5.269 5.257 0 3.293-2.027 5.269-5.27 5.269-3.242 0-5.268-1.921-5.268-5.269Zm7.149 0c0-1.81-.732-2.875-1.88-2.875-1.149 0-1.87 1.097-1.87 2.875 0 1.779.71 2.854 1.87 2.854 1.16 0 1.88-1.01 1.88-2.843v-.01Zm4.661 5.675h3.243c.154.334.415.61.743.789.33.178.708.248 1.08.199 1.284 0 1.96-.68 1.96-1.669v-1.843h-.068a3.146 3.146 0 0 1-1.254 1.359 3.262 3.262 0 0 1-1.82.44c-2.465 0-4.098-1.832-4.098-4.982 0-3.15 1.554-5.137 4.143-5.137a3.294 3.294 0 0 1 1.864.492c.556.345.99.847 1.244 1.44v-1.833h3.377v9.988c0 2.403-2.172 3.896-5.381 3.896-2.984 0-4.842-1.306-5.033-3.128v-.011Zm7.037-5.686c0-1.602-.755-2.612-1.948-2.612s-1.925.999-1.925 2.612c0 1.614.72 2.525 1.925 2.525s1.948-.89 1.948-2.514v-.01Zm4.65 0c0-3.292 2.071-5.257 5.269-5.257s5.28 1.965 5.28 5.257c0 3.293-2.026 5.269-5.28 5.269-3.254 0-5.27-1.91-5.27-5.258v-.01Zm7.15 0c0-1.81-.733-2.875-1.881-2.875-1.148 0-1.813 1.108-1.813 2.897 0 1.79.71 2.854 1.858 2.854 1.148 0 1.835-1.02 1.835-2.854v-.022Zm4.683-7.452c-.009-.333.084-.66.266-.941a1.71 1.71 0 0 1 .758-.638 1.763 1.763 0 0 1 1.888.32c.246.23.418.527.492.851a1.64 1.64 0 0 1-.077.974c-.124.31-.339.577-.619.767-.28.19-.61.296-.952.302a1.684 1.684 0 0 1-1.24-.432 1.602 1.602 0 0 1-.384-.538 1.567 1.567 0 0 1-.132-.643v-.022Zm0 2.414h3.378v10.076h-3.378V12.137Zm15.638 5.038c0 3.293-1.497 5.17-4.064 5.17a3.287 3.287 0 0 1-1.877-.45 3.166 3.166 0 0 1-1.276-1.416h-.067v4.961h-3.378V12.116h3.378v1.8h.067a3.172 3.172 0 0 1 1.251-1.453 3.294 3.294 0 0 1 1.88-.49c2.59.044 4.132 1.932 4.132 5.224l-.046-.022Zm-3.377 0c0-1.602-.754-2.623-1.937-2.623-1.182 0-1.936 1.032-1.948 2.623-.01 1.592.766 2.613 1.948 2.613 1.183 0 1.937-1 1.937-2.59v-.023Zm9.176-5.268c2.803 0 4.503 1.295 4.582 3.37h-3.073c0-.714-.608-1.164-1.543-1.164-.934 0-1.351.351-1.351.867s.372.68 1.126.834l2.162.428c2.06.429 2.938 1.24 2.938 2.766 0 2.086-1.948 3.425-4.819 3.425-2.87 0-4.75-1.34-4.897-3.392h3.254c.1.747.709 1.186 1.7 1.186.99 0 1.441-.319 1.441-.845 0-.527-.315-.637-1.126-.802l-1.948-.406c-2.015-.406-3.074-1.449-3.074-2.985.023-1.976 1.836-3.26 4.628-3.26v-.022Zm16.111 10.284h-3.254v-1.877h-.067a2.865 2.865 0 0 1-1.118 1.564 2.994 2.994 0 0 1-1.877.533 3.677 3.677 0 0 1-1.506-.233 3.602 3.602 0 0 1-1.271-.82 3.489 3.489 0 0 1-.807-1.26 3.41 3.41 0 0 1-.199-1.474v-6.508h3.378v5.75c0 1.197.63 1.834 1.677 1.834a1.755 1.755 0 0 0 1.298-.571 1.663 1.663 0 0 0 .414-1.328v-5.685h3.377l-.045 10.075Zm1.633-10.075h3.265v1.942h.067a2.923 2.923 0 0 1 1.097-1.553 3.05 3.05 0 0 1 1.842-.576 2.74 2.74 0 0 1 1.876.55c.532.408.887.995.995 1.645h.068a3.098 3.098 0 0 1 1.202-1.627 3.232 3.232 0 0 1 1.973-.568 3.35 3.35 0 0 1 1.342.233c.426.168.811.422 1.129.745.319.323.564.708.72 1.13.156.42.22.87.186 1.316v6.86h-3.377v-5.982c0-1.097-.507-1.602-1.453-1.602a1.506 1.506 0 0 0-1.117.485 1.426 1.426 0 0 0-.358 1.14v5.96h-3.208v-6.026c0-1.01-.507-1.559-1.43-1.559a1.517 1.517 0 0 0-1.129.495 1.437 1.437 0 0 0-.369 1.151v5.938h-3.377l.056-10.097ZM28.762 9.363a15.236 15.236 0 0 0-2.212-3.68 15.06 15.06 0 0 0-4.894-4.049 14.528 14.528 0 0 0-12.247-.53 14.943 14.943 0 0 0-5.203 3.611 15.552 15.552 0 0 0-3.317 5.498 15.946 15.946 0 0 0 .925 12.633 15.338 15.338 0 0 0 4.079 4.92c1.078.866 2.27 1.57 3.539 2.091A14.389 14.389 0 0 0 15.038 31c3.97-.01 7.773-1.645 10.578-4.548 2.805-2.903 4.381-6.837 4.384-10.94a15.747 15.747 0 0 0-1.238-6.15ZM15.027 3.156c1.727 0 3.433.39 4.998 1.143-.381.17-.783.29-1.194.354a6.263 6.263 0 0 0-3.573 1.851 6.633 6.633 0 0 0-1.79 3.693 3.474 3.474 0 0 1-.977 2.066 3.272 3.272 0 0 1-2.02.963 6.263 6.263 0 0 0-3.573 1.85 6.633 6.633 0 0 0-1.79 3.694 3.378 3.378 0 0 1-.874 1.989A12.704 12.704 0 0 1 4.941 8.87a12.115 12.115 0 0 1 4.335-4.21 11.638 11.638 0 0 1 5.762-1.528l-.011.023ZM5.882 23.513c.133-.126.265-.24.398-.377a6.343 6.343 0 0 0 1.791-3.692c.072-.79.413-1.527.962-2.08a3.09 3.09 0 0 1 2.002-.983 6.263 6.263 0 0 0 3.573-1.85 6.634 6.634 0 0 0 1.79-3.694c.048-.826.391-1.604.962-2.183a3.129 3.129 0 0 1 2.024-.949 5.98 5.98 0 0 0 3.317-1.634 11.921 11.921 0 0 1 2.61 3.177.976.976 0 0 1-.143.16 3.134 3.134 0 0 1-2.002 1.006 6.24 6.24 0 0 0-3.577 1.847 6.61 6.61 0 0 0-1.786 3.697 3.478 3.478 0 0 1-.96 2.08 3.274 3.274 0 0 1-2.015.983 6.295 6.295 0 0 0-3.587 1.848 6.665 6.665 0 0 0-1.81 3.696 3.667 3.667 0 0 1-.541 1.566 12.148 12.148 0 0 1-3.008-2.618Zm9.145 4.412a11.628 11.628 0 0 1-3.317-.48c.368-.71.608-1.486.707-2.286a3.478 3.478 0 0 1 .955-2.076 3.274 3.274 0 0 1 2.009-.987 6.262 6.262 0 0 0 3.58-1.848 6.632 6.632 0 0 0 1.794-3.696 3.478 3.478 0 0 1 .955-2.076 3.274 3.274 0 0 1 2.009-.987 6.196 6.196 0 0 0 2.83-1.143 12.77 12.77 0 0 1 .162 5.59 12.565 12.565 0 0 1-2.238 5.093 12.06 12.06 0 0 1-4.18 3.553 11.647 11.647 0 0 1-5.266 1.286v.057Z"/><path fill="#4A5D69" d="M18 29h1v1h-1z"/></svg>
